svgs/sharp-light/chess-pawn-piece.svg

<svg xmlns="http://www.w3.org/2000/svg" viewBox="0 0 256 512"><!--! Font Awesome Pro 6.6.0 by @fontawesome - https://fontawesome.com License - https://fontawesome.com/license (Commercial License) Copyright 2024 Fonticons, Inc. --><path d="M176 176a48 48 0 1 0 -96 0 48 48 0 1 0 96 0zm16 80l-6.1 0 10.7 96-32.2 0-10.7-96L128 256l-25.7 0L91.7 352l-32.2 0 10.7-96L64 256l-16 0 0-32 16 0c-10-13.4-16-30-16-48c0-44.2 35.8-80 80-80s80 35.8 80 80c0 18-6 34.6-16 48l16 0 0 32-16 0zM32 480l192 0 0-16.7L191.2 416 64.8 416 32 463.3 32 480zM0 480l0-26.7L48 384l160 0 48 69.3 0 26.7 0 32-32 0L32 512 0 512l0-32z"/></svg>

<svg xmlns="http://www.w3.org/2000/svg" viewBox="0 0 256 512"><!--! Font Awesome Pro 6.4.2 by @fontawesome - https://fontawesome.com License - https://fontawesome.com/license (Commercial License) Copyright 2023 Fonticons, Inc. --><path d="M176 176a48 48 0 1 0 -96 0 48 48 0 1 0 96 0zm16 80h-6.1l10.7 96H164.3l-10.7-96H128 102.3L91.7 352H59.5l10.7-96H64 48V224H64c-10-13.4-16-30-16-48c0-44.2 35.8-80 80-80s80 35.8 80 80c0 18-6 34.6-16 48h16v32H192zM32 480H224V463.3L191.2 416H64.8L32 463.3V480zM0 480V453.3L48 384H208l48 69.3V480v32H224 32 0V480z"/></svg>
